X: 1
T: Coleman's Farewell To Nicotine
M: 4/4
L: 1/8
R: hornpipe
K: Bmin
|:BFBA dBAF|(3BBB AF EDDE|FAAF DFBc|dcde afec|
(3ddd cd BFDF|BFAF EDDE|FBAF DFBc|dBcd Bffd:|
|:afec Bffd|cdec Bffd|efec Acec|dBcA (3BBB FB|
ABAF EDEF|CDEC B,FFD|FBAF DFBc|dBcd Bffd:|
